X: 24038
T: London Lasses, The
R: reel
M: 4/4
K: Dmajor
|:D3F ADFA|Bee2 Bdd2|D2F2 ADFA|BdAF FEEF|
D3F ADFA|Bee2 Bdde|fded B2AF|BdAF E2E2:|
|:d3A BAFA|ADFD FAAB|d3A BAFA|BdAF FEE2|
d3A BAFA|BAFA d2ee|fded B2AF|BdAF E2:|

